pages/features/push-notifications.svg

<?xml version="1.0" encoding="UTF-8" standalone="no"?>
<svg width="78px" height="88px" viewBox="0 0 78 88" version="1.1" xmlns="http://www.w3.org/2000/svg" xmlns:xlink="http://www.w3.org/1999/xlink">
    <!-- Generator: Sketch 3.8.1 (29687) - http://www.bohemiancoding.com/sketch -->
    <title>Push Notifications </title>
    <desc>Created with Sketch.</desc>
    <defs></defs>
    <g id="Desktop-design" stroke="none" stroke-width="1" fill="none" fill-rule="evenodd">
        <g id="Features" transform="translate(-1052.000000, -7059.000000)">
            <g id="Group-13" transform="translate(0.000000, 6396.000000)">
                <g id="Group-14-Copy-2" transform="translate(1051.000000, 663.000000)">
                    <g id="Push-Notifications-" transform="translate(1.000000, 0.000000)">
                        <path d="M35.5238347,0.829552857 C37.4344704,-0.277494758 40.5369227,-0.275540049 42.4458143,0.829552857 L74.5375323,19.4080459 C76.4498004,20.5150935 78,23.2113212 78,25.421507 L78,62.578493 C78,64.7925883 76.4464239,67.4868612 74.5375323,68.5919541 L42.4458143,87.1704471 C40.5335462,88.2774948 37.4310968,88.27554 35.5238347,87.1704471 L3.45951196,68.5919541 C1.54887626,67.4849065 2.12051611e-14,64.7886788 1.99889639e-14,62.578493 L-4.57382396e-16,25.421507 C-1.67573088e-15,23.2074117 1.55224986,20.5131388 3.45951196,19.4080459 L35.5238347,0.829552857 Z" id="Polygon-16" fill="#903EB9"></path>
                        <path d="M48.2222222,39.66 L48.2222222,52.1111111 L30.8888889,52.1111111 L30.8888889,34.7777778 L43.34,34.7777778 C43.2345556,34.3126667 43.1666667,33.8316667 43.1666667,33.3333333 C43.1666667,32.835 43.2345556,32.354 43.34,31.8888889 L30.8888889,31.8888889 C29.2971111,31.8888889 28,33.1888889 28,34.7777778 L28,52.1111111 C28,53.7 29.3,55 30.8888889,55 L48.2222222,55 C49.8111111,55 51.1111111,53.7 51.1111111,52.1111111 L51.1111111,39.66 C50.646,39.7654444 50.165,39.8333333 49.6666667,39.8333333 C49.1683333,39.8333333 48.6873333,39.7654444 48.2222222,39.66 L48.2222222,39.66 Z M49.6666667,29 C47.2732222,29 45.3333333,30.9398889 45.3333333,33.3333333 C45.3333333,35.7267778 47.2732222,37.6666667 49.6666667,37.6666667 C52.0601111,37.6666667 54,35.7267778 54,33.3333333 C54,30.9398889 52.0601111,29 49.6666667,29 L49.6666667,29 Z" id="Shape" fill="#FFFFFF"></path>
                    </g>
                </g>
            </g>
        </g>
    </g>
</svg>

<svg width="78" height="88" viewBox="0 0 78 88" xmlns="http://www.w3.org/2000/svg"><g fill="none"><path d="M35.524.83c1.911-1.107 5.013-1.105 6.922 0l32.092 18.578c1.912 1.107 3.462 3.803 3.462 6.013v37.157c0 2.214-1.554 4.908-3.462 6.013l-32.092 18.578c-1.912 1.107-5.015 1.105-6.922 0l-32.064-18.578c-1.911-1.107-3.46-3.803-3.46-6.013v-37.157c0-2.214 1.552-4.908 3.46-6.013l32.064-18.578z" fill="#903EB9"/><path d="M48.222 39.66v12.451h-17.333v-17.333h12.451c-.105-.465-.173-.946-.173-1.444s.068-.979.173-1.444h-12.451c-1.592 0-2.889 1.3-2.889 2.889v17.333c0 1.589 1.3 2.889 2.889 2.889h17.333c1.589 0 2.889-1.3 2.889-2.889v-12.451c-.465.105-.946.173-1.444.173s-.979-.068-1.444-.173zm1.444-10.66c-2.393 0-4.333 1.94-4.333 4.333 0 2.393 1.94 4.333 4.333 4.333 2.393 0 4.333-1.94 4.333-4.333 0-2.393-1.94-4.333-4.333-4.333z" fill="#fff"/></g></svg>
